X:1
T:Passacaglia
T:Passacaglia 
T:G. F. Händel(1685-1759) J. Halvorsen(1864-1935) 
T:arr. by Leonard Spyrou
T:from Händel's Suite No. 7 in G Minor for harpsichord arranged for Violin and Flute 
C:Händel-Halvorsen
%%score ( 1 2 ) ( 3 4 )
L:1/8
Q:1/4=72
M:4/4
K:Bb
V:1 treble nm="Violine" snm="Vl."
V:2 treble 
V:3 treble nm="Flöte" snm="Fl."
V:4 treble 
V:1
!ff!!ff!"^(\n)\n""^Largamente." (!>![Bd]>.[ce]) (!>![Ac]>.[Bd]) (!>![ce]>.[ce]) (!>![Bd]>.[ce]) | %1
 (!>![Ac]>.[Af]) (!>![Ge]>.[Af]) (!>![Bd]>.[Bd]) (!>![Ac]>.[Bd]) | %2
 (!>![GB]>.[GB]) (!>![^FA]>.[GB]) (!>![Ac]>.[Ac]) (!>![GB]>.[Ac]) | %3
 (!>![^FA]>.[Fd]) (!>![=Ec]>.[Fd]) (!>![GB]>A) !>!G2 || [Bd]3 [Bd] [ce]3 [Bd] | %5
 [Ac]3 [Ac] [Bd]3 [Ac] | [GB]3 [GB] [Ac]3 [GB] | ([^FA]2 d2)!>(! (B>A G2)!>)! || %8
"_dolce"!<(! (B!p!dgf)!<)!!>(! (edcB)!>)! |!<(! ((Acfe))!<)!!>(! (dcBA)!>)! | %10
!<(! (GBed)!<)!!>(! (cBAG)!>)! |!<(! (^FAdc)!<)!!>(! (BA G2)!>)! | (TG2{^F)G} B z (c z{/e} e') z | %13
 (T=F2{=E)F} A z (B z{/d} d') z | (T_E2{D)E} G z (A z{/c} c') z | %15
{/d} d' z{/^f} ^f' z{/g} g' z z2 || %16
"^Con agilità."[Q:1/4=110] (3z .d.c (3.B.c.d (3.e.=f.g (3.c.d.e | %17
 (3.A.B.c (3.F.f.e (3.d.e.f (3.B.c.d | !tenuto!e z .[Bg] z .[Ag] z .[ce] z | %19
 .[cd] z .[A^f] z !tenuto![Gg] z z2 |!f! (B2 G2) (g2 f2) | (A2 F2) (f2 d2) | %22
!>(! (3!tenuto!e!tenuto!f!tenuto!g (3!tenuto!c!tenuto!d!tenuto!e (3!tenuto!d!tenuto!=e!tenuto!^f (3(.g.a.b)!>)! | %23
!p! (3.c'"_spiccato".b.a (3.d'.c'.d' (3.b.c'.d' (6:4:7g3/2(a/4b/4c'/4d'/4=e'/4^f'/4 |: %24
 g') z/ (=f'/ _e') z/ (d'/ c') z/ (b/ a) z/ (g/ |{/f)} f' z/ (e'/ d') z/ (c'/ b) z/ (a/ g) z/ (f/ | %26
{/e)} e' z/ (d'/ c') z/ (b/ a) z/ (g/ ^f) z/ (g/ | d) z/ (a/ d') z/ (c'/ b) z/ (a/ g)!f!(d :| %28
!f!{GB} g/)!tenuto!f/!tenuto!e/!tenuto!d/ (5:4:5!tenuto!c/(B/A/G/F/ E)"^pizz."[Ecg] z"^arco" (c | %29
{Ac} !>!f/)!tenuto!e/!tenuto!d/!tenuto!c/ (5:4:5!tenuto!B/(A/G/F/E/ D)"^pizz."[DBf] z"^arco" (B | %30
{G)B} !>!e/!tenuto!d/!tenuto!c/!tenuto!B/ (5:4:5!tenuto!A/(G/F/E/D/ C)"^pizz."[A,Ge] z"^arco" (c | %31
{^F)A} !>!d/!tenuto!c/!tenuto!B/!tenuto!A/ (7:4:7!tenuto!G/(F/E/D/C/B,/A,/ G,)"^pizz."[DBg] z2 |: %32
!mf!!p!"^arco"{/^f} g z G, z!<(! (6:4:6(c'/d'/e'/d'/c'/b/!<)!!>(! (7:4:7a/g/=f/e/d/c/B/!>)! | %33
 A) z A, z!<(! (6:4:6(b/c'/d'/c'/b/a/!<)!!>(! (7:4:7g/f/e/d/c/B/A/!>)! | %34
 G) z G, z (6:4:6(E/G/A/c/e/c/ B)([Bg-] | [Ag]2) (6:4:6(!>![c^f]/d/c/A/^F/D/ G2) !fermata!z2 :| %36
 z/!f!"_un poco marcanto ma espressivo" !tenuto!b/!tenuto!a/!tenuto!b/ !tenuto!g/!tenuto!b/!tenuto!=f/!tenuto!b/ !tenuto!e/!tenuto!b/!tenuto!d/!tenuto!b/ !tenuto!c/!tenuto!b/!tenuto!B/!tenuto!b/ | %37
 c/!tenuto!a/!tenuto!g/!tenuto!a/ !tenuto!f/!tenuto!a/!tenuto!e/!tenuto!a/ !tenuto!d/!tenuto!a/!tenuto!c/!tenuto!a/ !tenuto!B/!tenuto!a/!tenuto!A/!tenuto!a/ | %38
 B/!tenuto!g/!tenuto!f/!tenuto!g/ !tenuto!e/!tenuto!g/!tenuto!d/!tenuto!g/ !tenuto!c/!tenuto!g/!tenuto!B/!tenuto!g/ !tenuto!A/!tenuto!g/!tenuto!G/!tenuto!g/ | %39
 A/!tenuto!g/!tenuto!^f/!tenuto!=e/ !tenuto!f/!tenuto!g/!tenuto!e/!tenuto!f/ !tenuto!g z z2 | %40
 z/!pp!"_spiccato" .b/.a/.b/ .g/.b/.=f/.b/ ._e/.b/.d/.b/ .c/.b/.B/.b/ | %41
 .c/.a/.g/.a/ .f/.a/.e/.a/ .d/.a/.c/.a/ .B/.a/.A/.a/ | %42
 .G/.g/.f/.g/ .e/.g/.d/.g/ .c/.g/.B/.g/ .A/.g/.G/.g/ | .A/.g/.^f/.=e/ .f/.g/.e/.f/ .g z z2 || %44
 z!mf! PbPgPd z P=ePgPb | z Pc'PaPf z P^gP=bPd' | z P_bP=gP=e z PaPgPb | %47
 z P_e"^rit."PdPc PBPA!>(!{GA} G2!>)! |:[Q:1/4=65]!p! (d!pp!e!<(! f2- f)!<)!!>(! (e2 d)!>)! | %49
!<(! (G_G F2)!<)!!>(! [Fd]4!>)! |!p! (Bc d2- d) (c2 B) | (A3 B) [B,G]4 ::!f!!pp! (g_agf) e4 | %53
 (fgfe) d4 | (efed) [Ec](edc) | (dc)(BA)!>(! G4!>)! :| %56
"^pizz."!mf![Q:1/4=75]"^.Piu mosso." [B,Gd] z [=B,Gf] z [CGf] z [CGe]d | %57
 [A,Fc] z [A,Fe] z [_B,Fe] z [B,Fd] z | [EGc] z [CGe] z [A,^Fd] z [G,DB] z | %59
 [CGA] z [D^FA][CDB] [B,G] z z2 || %60
"^pizz."!pp![Q:1/4=80]"_con spirito" !arpeggio![B,Gd] z !arpeggio![=B,Gf] z !arpeggio![CGf] z !arpeggio![CGe]d | %61
 !arpeggio![A,Fc] z !arpeggio![A,Fe] z !arpeggio![_B,Fe] z !arpeggio![B,Fd] z | %62
 !arpeggio![EGc] z !arpeggio![CGe] z !arpeggio![A,^Fd] z !arpeggio![G,DB] z | %63
 !arpeggio![CGA] z !arpeggio![D^FA]!arpeggio![CDB] [B,G] z z2 |: %64
"^arco"!p!"_spiccato" .G,/4.B,/4.D/4.G/4.B,/4.D/4.G/4.B/4 .D/4.G/4.B/4.d/4.G/4.B/4.d/4.g/4 .e/4.f/4.g/4.f/4.e/4.f/4.e/4.d/4 .c/4.d/4.e/4.d/4.c/4.d/4.c/4.B/4 | %65
 .A.C.F.A .B.A.G.F | %66
 .E/4.G/4.B/4.e/4.G/4.B/4.e/4.g/4 .B/4.e/4.g/4.b/4.e/4.g/4.b/4.e'/4 .c'/4.d'/4.e'/4.d'/4.c'/4.d'/4.c'/4.b/4 .a/4.b/4.c'/4.b/4.a/4.b/4.a/4.g/4 | %67
 .^f.d.d'.d .g.G,"_rep. ad libitum" z2 :| %68
"_a capriccio"[Q:1/4=70]({c'b)a} .b({ag^f}.g({e)d)^c}.d({=cB)A}.B z4 | %69
({ba)^g} .a({=g=f)=e}.f({_dc)=B}.c({_BA)^G}.A z4 | %70
({_ag)^f} .g({=f_e)=d}.e({cB)=A}.B({_AG)^F}.G z4 | %71
({g^f)^e} .f({_ed)^c}.d({d=c)=B}.c({_BA)^G}.A z4 |: %72
"^(ponticello)"[Q:1/4=80] (6:4:6(^c/d/)(^f/g/)(a/b/) (6:4:6(^c'/d'/)(a/b/)(f/g/) (6:4:6(e/g/)(=c/e/)(e/g/) (6:4:6(c/e/)(e/g/)(c/e/) | %73
 (6:4:6(=E/F/)(^G/A/)(=B/c/) (6:4:6(=e/=f/)(^g/a/)(=b/=c'/) (6:4:6(d'/f'/)(_b/d'/)(d'/f'/) (6:4:6(b/d'/)(d'/f'/)(b/d'/) | %74
 (6:4:6(^f/g/)(d/_e/)A/_B/ (6:4:6(^F/=G/).B/.e/.g/.b/ (6:4:6(^g/a/)(d/e/)(=B/c/) (6:4:6(^G/A/).c/.e/.a/.c'/ | %75
 (6:4:6(a/b/)(^f/g/)(^c/d/) (6:4:6(=B/=c/).A/._B/.^G/.A/ (6:4:6(^F/=G/)(f/g/)(^f'/g'/) !open!f/!open!g/"_rep. ad libitum" z :| %76
[M:12/8][Q:1/4=160] d z z z"_saltando" (.B/.c/.d/.B/) e z z z"_sempre" (.e/.d/.c/.B/) | %77
 A z z z (.A/.B/.c/.A/) d z z z (.d/.c/.B/.A/) | G z z z (.G/.A/.B/.G/) c z z z (.c/.e/.d/.c/) | %79
 B z z z (.A/.c/.B/.A/) G z z !fermata!z2 z || %80
[M:4/4][Q:1/4=70]"^(\n)\n"!ff!!ff!!ff!"^Molto energico." !>![G,Fd]3 .[Fe] !>![Fc]2 !>![Fd]2 | %81
 .[Ee]/(C/4D/4E/4F/4G/4A/4 =B/4c/4d/4e/4f/4g/4a/4=b/4 (9:8:9c'/4d'/4e'/4f'/4g'/4a'/4=b'/4c''/4d''/4) (!>!e''>.[Fd]) | %82
 !>![Fc]3 .[Ff] !>![Fe]2 !>![Ff]2 | %83
 [Fd]/(B,/4C/4(5:4:5D/4E/4F/4G/4A/4 B/4c/4d/4e/4f/4g/4a/4b/4!8va(! c'/4d'/4e'/4f'/4g'/4a'/4b'/4c''/4) (!>!d''>!8va)!.c) | %84
 !>![GB]3 .[GB] !>![GA]2 !>![GB]2 | !>![Ec]3 .[Ec] !>![E=B]2 !>![Ec]>._B | %86
 !>![^FA]3 .[Fd] !>![=Ec]2 !>![Fd]2 | %87
!>(! [Dd]/D/4G/4B/4d/4g/4"^ritardando"b/4 d'2!>)! z/ d/4^f/4a/4d'/4!8va(!^f'/4a'/4 !fermata!d''2!8va)! || %88
!f!"^Allegro con fuoco."[Q:1/4=105] [Bd]/G,/G,/[ce]/ [Ac]/G,/G,/[Bd]/ [ce]/G,/G,/[ce]/ [Bd]/G,/G,/[ce]/ | %89
 [Ac]/G,/G,/[Af]/ [Ge]/G,/G,/[Af]/ [Bd]/G,/G,/[Bd]/ [Ac]/G,/G,/[Bd]/ | %90
 [GB]/G,/G,/[GB]/ [^FA]/G,/G,/[GB]/ [Ac]/G,/G,/[Ac]/ [GB]/G,/G,/[Ac]/ | %91
 [^FA]/G,/G,/[Fd]/ [=Ec]/G,/G,/[Fd]/ [GB]/G,/G,/[FA]/ [B,G]/G,/G,/[Bg]/ | %92
!ff!"_cresc." [=Bg]/[G,D]/[G,D]/[B_a]/ [B^f]/[G,D]/[G,D]/[Bg]/ [cg]/[G,E]/[G,E]/[ca]/ [cf]/[G,E]/[G,E]/[cg]/ | %93
 [^c=a]/[G,=E]/[G,E]/[c_b]/ [c^g]/[G,E]/[G,E]/[ca]/ [db]/[G,F]/[G,F]/[dc']/ [da]/[G,F]/[G,F]/[db]/ | %94
"_molto et stringendo""_cresc." [d=b]/[G,F]/[G,F]/[db]/ [ec']/[G,^F]/[G,F]/[ec']/ [=e^c']/[G,G]/[G,G]/[ec']/ [=g=e']/[G,_B]/[G,B]/[ge']/ | %95
 [bg']/[G,^c]/[G,c]/[bg']/ [^c'b']/[G,=e]/[G,e]/[c'b']/"^ten."!8va(! [=e'^c'']!8va)![Q:1/4=71]"^Adagio." z!fff![Q:1/4=50] !>!G=F | %96
 !>![Ed]2"_rit." !>![Ec]!>![EB] (!>!A2 ^F3/2) G/ |!fff!!fff! !>![=B,G]6 z2 |] %98
V:2
 x8 | x8 | x8 | x8 || x8 | x8 | x8 | x8 || x8 | x8 | x8 | x8 | x8 | x8 | x8 | x8 || x8 | x8 | x8 | %19
 x8 | d4 G4 | c4 F4 | x8 | x8 |: x8 | x8 | x8 | x8 :| x8 | x8 | x8 | x8 |: x8 | x8 | x8 | x8 :| %36
 x8 | x8 | x8 | x8 | x8 | x8 | x8 | x8 || x8 | x8 | x8 | x8 |: G8 | (c3 e) x4 | (F2 E6) | %51
 (E2 D2) x4 :: G4 G4 | F2 x2 F4 | G2 x3 G3 | D2 ^F2 x4 :| x8 | x8 | x8 | x8 || x8 | x8 | x8 | x8 |: %64
 x8 | x8 | x8 | x8 :| x8 | x8 | x8 | x8 |: x8 | x8 | x8 | x8 :|[M:12/8] x12 | x12 | x12 | x12 || %80
[M:4/4] x8 | x511/64 | x8 | x4!8va(! x7/2!8va)! x/ | x8 | x8 | x8 | x11/2!8va(! x5/2!8va)! || x8 | %89
 x8 | x8 | x8 | x8 | x8 | x8 | x4!8va(! x!8va)! x !>!d2 | G,2 x2 G2 x2 | x8 |] %98
V:3
!ff! G4 E4 | F4 D4 | E4 C4 | d2 D2 G4 || gfed cdec | fedc BcdB | edcB ABcA | dcBA GdcB || %8
!p!"_dolce" (G2 B2) e z E z | (F2 A2) (B z D) z | (E2 G2) (A z C) z | (D2 ^F2) (G3 A) | %12
!<(! (Bdgf)!<)!!>(! (edcB)!>)! |!<(! ((Acfe))!<)!!>(! (dcBA)!>)! |!<(! (GBed)!<)!!>(! (cBAG)!>)! | %15
!<(! (^FAdc)!<)!!>(! (BA G2)!>)! || %16
 !arpeggio![Bd] z !arpeggio![Gd] z !arpeggio![cg] z !arpeggio![ce] z | %17
 !arpeggio!f z !arpeggio![Af] z !arpeggio![Bf] z !arpeggio![df] z | %18
 (3.g.a.b (3.e.f.g (3.c.d.e (3.A.B.c | (3.^F.G.A (3.D.d.c (3.B(.c.d) G2- | %20
 (3G!f!!tenuto!d!tenuto!c (3!tenuto!B!tenuto!c!tenuto!d (3!tenuto!e!tenuto!f!tenuto!g (3!tenuto!C!tenuto!D!tenuto!E | %21
 (3!tenuto!F!tenuto!c!tenuto!B (3!tenuto!A!tenuto!B!tenuto!c (3!tenuto!d!tenuto!e!tenuto!f (3!tenuto!B!tenuto!c!tenuto!d | %22
 c2!>(! (3!tenuto!e!tenuto!d!tenuto!c (3:2:2d2 .c (3:2:2B2 .g!>)! |!p!!p! (g2 ^f2) [Gg]3 z |: %24
 !>!.G/.d/.b/.d/ !>!.B/.g/.d'/.g/ !>!.c/.g/.e'/.g/ !>!.e/.c'/.g/.c'/ | %25
 !>!.F/.c/.g/.c/ !>!.A/.f/.c'/.f/ !>!.B/.f/.d'/.f/ !>!.d/.b/.f/.b/ | %26
 !>!.E/.B/.g/.B/ !>!.G/.e/.b/.e/ !>!.A/.e/.c'/.e/ !>!.c/.a/.e/.a/ | %27
 d/e'/d'/c'/ b/c'/b/a/ g/a/g/d/!<(! B/c/B/A/!<)! :| %28
!f! G!arpeggio![Gdb] z (B g/)!tenuto!f/!tenuto!e/!tenuto!d/ !tenuto!c/!tenuto!B/!tenuto!A/!tenuto!G/ | %29
 F!arpeggio![cfa] z (A f/)!tenuto!e/!tenuto!d/!tenuto!c/ !tenuto!B/!tenuto!A/!tenuto!G/!tenuto!F/ | %30
 E!arpeggio![Be] z (G e/)!tenuto!d/!tenuto!c/!tenuto!B/ !tenuto!A/!tenuto!G/!tenuto!^F/!tenuto!G/ | %31
 D!arpeggio![c^f] z (^F G/!tenuto!A/!tenuto!B/!tenuto!c/) (!tenuto!d/!tenuto!c/!tenuto!B/!tenuto!A/) |: %32
!mf!!<(! (6:4:6(G/!p!A/B/c/d/=e/ (6:4:6^f/g/a/b/c'/d'/ e')!<)! z E2 | %33
!<(! (6:4:6(F/G/A/B/c/d/ (6:4:6e/f/g/a/b/c'/ d')!<)! z D2 | %34
 (6:4:6(E/F/G/A/B/c/ (6:4:6d/e/f/g/a/b/ c') z (6:4:6(d'/b/g/d/B/G/) | %35
 (6:4:6(c/d/e/c/d/e/ dD) (6:4:6(G/A/B/c/B/A/ !fermata!G2) :| %36
!f!"_un poco marcanto ma espressivo" g/!tenuto!d'/!tenuto!b/!tenuto!d'/ !tenuto!g/!tenuto!d'/!tenuto!b/!tenuto!d'/ c/!tenuto!g/!tenuto!e/!tenuto!g/ !tenuto!c/!tenuto!g/!tenuto!e/!tenuto!g/ | %37
 f/!tenuto!c'/!tenuto!a/!tenuto!c'/ !tenuto!f/!tenuto!c'/!tenuto!a/!tenuto!c'/ B/!tenuto!f/!tenuto!d/!tenuto!f/ !tenuto!B/!tenuto!f/!tenuto!d/!tenuto!f/ | %38
 e/!tenuto!b/!tenuto!g/!tenuto!b/ !tenuto!e/!tenuto!b/!tenuto!g/!tenuto!b/ A/!tenuto!e/!tenuto!c/!tenuto!e/ !tenuto!A/!tenuto!e/!tenuto!c/!tenuto!e/ | %39
 d/!tenuto!c'/!tenuto!a/!tenuto!c'/ !tenuto!d/!tenuto!c'/!tenuto!a/!tenuto!c'/ !>!d'/!tenuto!d'/!tenuto!c'/!tenuto!d'/!>(! .b/.c'/.a/.b/!>)! | %40
!pp! .g/.d'/.b/.d'/ .g/.d'/.b/.d'/ .c/.g/.e/.g/ .c/.g/.e/.g/ | %41
 .f/.c'/.a/.c'/ .f/.c'/.a/.c'/ .B/.f/.d/.f/ .B/.f/.d/.f/ | %42
 .e/.b/.g/.b/ .e/.b/.g/.b/ .A/.e/.c/.e/ .A/.e/.c/.e/ | %43
 .d/.c'/.a/.c'/ .d/.c'/.a/.c'/ .b/.d'/.c'/.d'/!<(! !tenuto!b/!tenuto!c'/!tenuto!a/!tenuto!b/!<)! || %44
!mf! (!>!G/B/d/).B/!<(! .d/.g/.b/.d'/!<)!!>(! (^c'/b/g/)(.=e/!>)! .^c/.B/.G/.=E/) | %45
 (!>!E/F/A/).c/!<(! .e/.f/.a/.c'/!<)!!>(! (=b/^g/f/)(.d/!>)! .=B/.^G/.F/.D/) | %46
 (!>!^C/=E/G/).B/ .^c/.=e/.d/.c/ (!>!=c/d/^f/).a/ (!>!B/d/g/).d'/ | %47
 c'/b/a/g/"^rit." ^f/d/=e/f/ g/d/B/d/!>(! G2!>)! |:!p!!pp! (b3!<(! =b) (c'2!<)!!>(! _b2)!>)! | %49
!<(! (e2 a2)!<)!!>(! (a2 _a2)!>)! |!p! g4 ((A2 B2)) |!>(! (c2 d2)!>)! G4 ::!f!!pp! =B4 (cdc_B) | %53
 A4 (BcBA) | G4 Ac(Be) | A2 ((c2 c))!>(!(BAG)!>)! :| %56
 z/!mf! (.G/.A/.B/) z/ (.G/.A/.=B/) z/ (.c/.d/.e/) z/ (.C/.D/.E/) | %57
 z/ (.F/.G/.A/) z/ (.F/.G/.A/) z/ (.B/.c/.d/) z/ (.B/.c/.d/) | %58
 z/ (.c/.d/.e/) z/ (.C/.D/.E/) z/ (.D/.=E/.^F/) z/ (.G/.A/.B/) | %59
 z/ (.c/.d/.e/) z/ (.D/.=E/.^F/) (.G/.c/.B/.A/) G2 || %60
 z/!pp!"_con spirito" .G/.A/.B/ z/ .G/.A/.=B/ z/ .c/.d/.e/ z/ .C/.D/.E/ | %61
 z/ .F/.G/.A/ z/ .F/.G/.A/ z/ .B/.c/.d/ z/ .B/.c/.d/ | %62
 z/ .c/.d/.e/ z/ .C/.D/.E/ z/ .D/.=E/.^F/ z/ .G/.A/.B/ | %63
 z/ .c/.d/.e/ z/ .D/.=E/.^F/ .G/.c/.B/.A/ G2 |: z!p! .G.B.d .e.d.c.B | %65
 .F/4.A/4.c/4.f/4.A/4.c/4.f/4.a/4 .c/4.f/4.a/4.c'/4.f/4.a/4.c'/4.e'/4 .d'/4.e'/4.f'/4.e'/4.d'/4.e'/4.d'/4.c'/4 .b/4.c'/4.d'/4.c'/4.b/4.c'/4.b/4.a/4 | %66
 .g.e.g.b .a.b.c'.e' | %67
 .d'/4.d'/4.e'/4.d'/4.c'/4.d'/4.c'/4.b/4 .a/4.b/4.a/4.g/4.^f/4.e/4.d/4.c/4 .B/4.c/4.B/4.A/4.G/4.B/4.d/4.f/4 .g/4.b/4.d'/4"_rep. ad libitum".^f'/4.g' :| %68
 z4"_a capriccio"({DE)F} .E({^FG)_A}.G({=Bc)d}.c({de)f}.e | %69
 z4({^CD)E} .D({=EF)G}.F({AB)c}.B({^cd)e}.d | z4({DE)D} .C({DE)F}.E({^GA)B}.A({=Bc)d}.c | %71
 z4({^FG)A} .G({AB)c}.B({^cd)e}.d({^fg)a}.!tenuto!g |: %72
 (6:4:6(g/b/)(b/d'/)(d'/g'/) (6:4:6(g'/d'/)(d'/g'/)(b/d'/) (6:4:6(c'/e'/)(g/c'/)(c'/e'/) (6:4:6(g/c'/)(c'/e/)(B/c/) | %73
 (6:4:6(A/c/)(c/f/)(f/a/) (6:4:6(a/c'/)(c'/f'/)(f'/a'/) (6:4:6(b/d'/)(f'/b/)(b/d'/) (6:4:6(f'/b/)(b/d'/)(b/d'/) | %74
 (6:4:6(b/e'/)(g/b/)e/g/ (6:4:6(B/e/).g/.b/.e'/.g'/ (6:4:6(c'/e'/)(a/c'/)(e/g/) (6:4:6(e/g/).a/.c'/.e'/.a/ | %75
 (6:4:6(d'/g'/)(b/d'/)(g/b/) (6:4:6(e/g/).d/.g/.c/.^f/ (6:4:6(B/d/)(b/d'/)(g'/b/) g'"_rep. ad libitum" z :| %76
[M:12/8] z"_saltando" (.d/.c/.B/.A/) G z z z"_sempre" (.g/.f/.e/.d/) c z z | %77
[K:treble] z (.c/.B/.A/.G/) F z z z (.f/.e/.d/.c/) B z z | %78
 z (.B/.A/.G/.F/) E z z z (.e/.d/.c/.B/) A z z | %79
 z (.B/.d/.c/.B/) A z z z (.d/.c/.B/.A/) !fermata!G z z ||[M:4/4]!ff!!ff! !>!T=B3 .B !>!A2 !>!B2 | %81
 !>!Tc3 .e !>!Tc2 (!>!c>.B) | !>!TA3 .A !>!G2 !>!A2 | !>!Td3 .d !>!TB2 (!>!B>.A) | %84
 !>!Td3 .d !>!e2 !>!d2 | %85
 a/(A/4B/4(5:4:5c/4d/4e/4f/4g/4) (!>!a/4g/4e/4g/4e/4c/4A/4c/4 A/4G/4E/4G/4E/4F/4E/4D/4) !>!C2 | %86
 !>!D3 .D!>(! !>!D2 !>!D2!>)! |"_ritardando" B4 !fermata!A4 || %88
!f! G/b/d'/G/ G/a/c'/G/ G/c'/e'/G/ G/b/d'/G/ | G/e/c'/G/ G/c'/e'/G/ G/b/d'/G/ G/b/c'/G/ | %90
 G/g/b/G/ G/^f/a/G/ G/a/c'/G/ G/g/b/G/ | G/^f/a/G/ G/=e/c'/G/ G/f/a/G/ G/B/g/G/ | %92
!ff!"_cresc." =G/=f/=b/f/ G/f/b/f/ G/_e/c'/e/ G/e/c'/e/ | %93
 G/=e/^c'/e/ G/e/c'/e/ G/f/d'/f/ G/f/d'/f/ | %94
"_molto et stringendo""_cresc." G/f/=b/f/ G/^f/c'/f/ G/g/^c'/g/ G/_b/=e'/b/ | %95
 G/b/g'/b/ G/^c'/b'/c'/"^ten." !arpeggio![Gc'b'] z!fff! !>!d2 | %96
 !>!d2"_rit." !>!c!>!B (!>!Ad) !>!c2 |!fff!!fff! !>!d6 z2 |] %98
V:4
 x8 | x8 | x8 | x8 || x8 | x8 | x8 | x8 || x8 | x8 | x8 | x8 | x8 | x8 | x8 | x8 || x8 | x8 | x8 | %19
 x8 | x8 | x8 | x8 | A4 x4 |: x8 | x8 | x8 | x8 :| x8 | x8 | x8 | x8 |: x8 | x8 | x8 | x8 :| x8 | %37
 x8 | x8 | x8 | x8 | x8 | x8 | x8 || x8 | x8 | x8 | x8 |: x8 | x8 | x8 | x8 :: x8 | x8 | x8 | x8 :| %56
 x8 | x8 | x8 | x8 || x8 | x8 | x8 | x8 |: x8 | x8 | x8 | x8 :| x8 | x8 | x8 | x8 |: x8 | x8 | x8 | %75
 x8 :|[M:12/8] x12 |[K:treble] x12 | x12 | x12 ||[M:4/4] x8 | x8 | x8 | x8 | x8 | x8 | x8 | x8 || %88
 x8 | x8 | x8 | x8 | x8 | x8 | x8 | x8 | x8 | x8 |] %98

